X:1
T:Title
%%score { ( 1 3 ) | ( 2 4 ) }
L:1/8
M:4/4
K:Db
V:1 treble nm="Grand Piano"
V:3 treble 
V:2 bass 
V:4 bass 
V:1
 z4 z2[Q:1/4=100] [DF][EG] | [FA][FA][_F=G][=FA] [_GB][FA][DF][Fd] | [Gc]6 [CE][DF] | %3
 [EG][EG][DF][EG] [Ac][GB][FA][GB] |[M:3/4] [FA]6 |[M:1/4] [DF][EG] | %6
[M:4/4] [FA][FA][_F=G][=FA] [GB][FA][A,DF][DFd] | [EGc]6 [EGc][EGc] | %8
 [E=Gc][DGB][DGB][EGc] [FGd][FGd][EGc][DGB] |[M:3/4] [CA]6 |[M:1/4] FE | %11
[M:4/4] D6[K:bass][K:treble] z2 | A2- [FA-][FA] F2 [FB][Fc] |[M:7/8] [Fe] [Fd]3 [Fe] [Fd]2 | %14
[M:1/8] [FB] |[M:4/4] c6 GF | [CE]2 [CE]2 [CE][DF][EG][FA] | [Gc]2 [Gc]2 [Gc]2 [CF][CE] | %18
 D2 D2 DEF[EG] |[M:3/4] [FA]2 [GB]2 AG |[M:1/4] FE |[M:4/4] D6[K:bass][K:treble] z2 | %22
 A2- [FA-][FA] F2 [FB][Fc] |[M:7/8] [Fe] [Fd]3 [Fe] [Fd]2 |[M:1/8] [FA] |[M:4/4] B6 =AB | d6 z2 | %27
 d6 z2 | [FA] [FA]3 A e2 A |[M:3/4] d6 |] %30
V:2
 z4 z2 [D,A,][D,A,] | [D,D][D,D][D,D][D,D] [D,D][D,D][D,A,][D,D] | [A,E]6 [A,,A,][A,,A,] | %3
 [A,,A,][A,,A,][A,,A,][A,,A,] [A,,A,][A,,A,][A,,A,][A,,A,] |[M:3/4] [D,A,]6 |[M:1/4] [D,A,][D,A,] | %6
[M:4/4] [D,D][D,D][D,D][D,D] [D,D][D,D]D,D, | A,6 A,A, | E,E,E,E, E,E,E,E, |[M:3/4] A,6 | %10
[M:1/4] F,E, |[M:4/4] z4 z G,D,D, | z2 DB, A,2 [D,A,][D,A,] | %13
[M:7/8] [D,A,] [D,A,]3 [D,A,] [D,A,]2 |[M:1/8] [D,D] | %15
[M:4/4][K:treble] [A,EG]6 [A,E][K:bass][A,D] | [A,,A,]2 [A,,A,]2 [A,,A,]2 [A,,A,][A,,A,] | %17
 [A,,A,]2 [A,,A,]2 [A,,A,]2 [A,,A,][A,,G,] | [D,F,]2 [D,F,]2 [D,F,][D,G,D][D,A,D][D,A,] | %19
[M:3/4] [D,D]2 [D,D]2 [A,CE]2 |[M:1/4] F,E, |[M:4/4] z4 z G,D,D, | z2 DB, A,2 [D,A,][D,A,] | %23
[M:7/8] [D,A,] [D,A,]3 [D,A,] [D,A,]2 |[M:1/8] [D,D] |[M:4/4] [G,DG]6 =A,B, | D6 z2 | D6 z2 | %28
 [D,A,] [D,D]3[K:treble] [A,EG] [A,CG]2 [A,CG] |[M:3/4][K:bass] A,2 z2 z2 |] %30
V:3
 x8 | x8 | x8 | x8 |[M:3/4] x6 |[M:1/4] x2 |[M:4/4] x8 | x8 | x8 |[M:3/4] x6 |[M:1/4] x2 | %11
[M:4/4] z2[K:bass] F,F, F,[K:treble]E[A,DF][A,EG] | [DF]2 z2 z4 |[M:7/8] x7 |[M:1/8] x | %15
[M:4/4] x8 | x8 | x8 | x8 |[M:3/4] x6 |[M:1/4] x2 | %21
[M:4/4] z2[K:bass] F,F, F,[K:treble]E[A,DF][A,EG] | [DF]2 z2 z4 |[M:7/8] x7 |[M:1/8] x | %25
[M:4/4] x8 | z2 GG F2 =AB | z2 FF _F2 [Fc][FB] | x8 |[M:3/4] F2 G2 F2 |] %30
V:4
 x8 | x8 | x8 | x8 |[M:3/4] x6 |[M:1/4] x2 |[M:4/4] x8 | x8 | x8 |[M:3/4] x6 |[M:1/4] x2 | %11
[M:4/4] D,6 z2 | D,6 z2 |[M:7/8] x7 |[M:1/8] x |[M:4/4][K:treble] x7[K:bass] x | x8 | x8 | x8 | %19
[M:3/4] x6 |[M:1/4] x2 |[M:4/4] D,6 z2 | D,6 z2 |[M:7/8] x7 |[M:1/8] x |[M:4/4] x8 | %26
 z2 [D,B,][D,B,] [D,A,]2 =A,B, | z2 [D,A,][D,A,] [D,=G,]2 [D,G,][D,G,] | x4[K:treble] x4 | %29
[M:3/4][K:bass] D,2- [D,-B,]2 [D,A,]2 |] %30

